X: 800
T: Miss Fahey's fancy
C: anon.
O: Ireland
B: Francis O'Neill: "The Dance Music of Ireland" (1907) no. 800
R: Reel
Z: Transcribed by Frank Nordberg - http://www.musicaviva.com
F: http://www.musicaviva.com/abc/tunes/ireland/oneill-1001/oneill-1001-080
0.abc
M: C|
L: 1/8
K: Glyd
(AG)|FDD(C A,2) FG|A(=cBG) cBAG|AGD(E F2)EF|D(dcA) G2(AG)|FDDC (3A,B,C
(DG)|BA(cA dc)de|(3fed (3edc dcA(B|=cA)GF G2||
(FG)|Add(e fd)ec|ABC(A dc)AG|Add(e fg)e(c|AB)cA d2(fg)|(3agf (3gfe fde(f|
dc)A(B cA)GE|Ddd(c A)de(g|f)d=cAG2|]
W:
W:
W: From Musica Viva - http://www.musicaviva.com
W: the Internet center for free sheet music downloads.


